X:1
T:Title
%%score { ( 1 3 ) | ( 2 4 ) }
L:1/8
Q:1/4=100
M:4/4
K:Bb
V:1 treble nm="Grand Piano"
V:3 treble 
V:2 bass 
V:4 bass 
V:1
 [DF]2 [DF]>[DF] [DF]2 [B,D][CE] | [DF]2 [DB]>[Ec] B2 A2 | F2 F>F F2 cd | c2 B>c [Fd]4 | %4
w: John~R.~Sweney * * * * *||||
 [DF]2 [DF]>[DF] [DF]2 [DB][Ec] | [Fd]2 [Fc]>[FB] [GB]2 [EG]2 | [GB]2 [FA]>[EG] [DF]2 [FB][Gc] | %7
w: |||
 d2 c>B [DB]4 | c2 F>F FAce | z2 z B z4 | G2 G>G B2 BB | [=EB]2 [EA]>[EB] [_Ec]4 | %12
w: |||||
 [Fd]2 [Fd]>[Fd] [Fd]2 [DB][Ec] | [Fd]2 [Fc]>[FB] [GB]2 [EG]2 | [GB]2 [FA]>[EG] [DF]2 [FB][Gc] | %15
w: |||
 d2 c>B [DB]4 |] %16
w: |
V:2
 [B,,B,]2 [B,,B,]>[B,,B,] [B,,B,]2 [B,,F,][B,,F,] | [B,,B,]2 [B,,F,]>[B,,F,] [F,D]2 [F,C]2 | %2
 [F,A,E]2 [F,A,E]>[F,A,E] [F,A,E]2 [F,A,E][F,B,F] | [F,A,E]2 [F,B,D]>[F,A,F] [B,,B,]4 | %4
 [B,,B,]2 [B,,B,]>[B,,B,] [B,,B,]2 [B,,F,][B,,F,] | [B,,B,]2 [C,A,]>[D,B,] [E,B,]2 [E,B,]2 | %6
 [E,E]2 [E,B,]>[E,B,] [B,,B,]2 [D,B,][E,B,] | [F,B,F]2 [F,A,E]>[F,D] [B,,F,]4 | %8
 [F,A,F]2 [F,A,C]>[F,A,C] [F,A,C][K:treble][F,CF][F,A,F][F,A,F] | %9
 [B,F]2[K:bass] ED [B,,F,]2 [B,,B,]2 | [E,B,E]2 [E,B,E]>[E,B,E] [E,G,E]2 [E,G,E][E,G,E] | %11
 [C,G,]2 [C,C]>[C,B,] [F,A,]4 | [B,,B,]2 [B,,B,]>[B,,B,] [B,,B,]2 [B,,F,][B,,F,] | %13
 [B,,B,]2 [C,A,]>[D,B,] [E,B,]2 [E,B,]2 | [E,E]2 [E,B,]>[E,B,] [B,,B,]2 [D,B,][E,B,] | %15
 [F,B,F]2 [F,A,E]>[F,D] [B,,F,]4 |] %16
V:3
 x8 | x8 | x8 | x8 | x8 | x8 | x8 | x8 | x8 | d2 .c>F, [DB]2 [DF]2 | x8 | x8 | x8 | x8 | x8 | x8 |] %16
V:4
 x8 | x8 | x8 | x8 | x8 | x8 | x8 | x8 | x5[K:treble] x3 | z2[K:bass] [F,A,]2 z4 | x8 | x8 | x8 | %13
 x8 | x8 | x8 |] %16

